X: 11302
M: 3/4
L: 1/8
K: F
c3bag | facfaf | egcege | fafcAB |\
c2cbag | facfaf | egcege | f4 H:|
gf |\
egcege | facfaf | egcege | fafcAB |\
c2cbag | facfaf | egcege | "^D.C."f4 |]


